X: 1
T: Mazurka
O: efter Lovisa Olsson, \AAsarna, J\"amtland
R: mazurka
S: printed MS of unknown origin
Z: 2009 John Chambers <jc:trillian.mit.edu>
M: 3/4
L: 1/8
K: G
|: "G" B>c d2 b2 | "D7"f>a g>f "G"g2 \
| B>c d2 b2 | "C"f2 e>^d e2 \
| "Am"A>B c>d e>d |
| "D7"d>c' f2 f>e \
|1 "D7"d>c' f2 f>a | "G"a2 g>f g2 \
:|2 "D7"e>d ^c>d e>f | "G"G2 "fine"g3 g |]
|: "G"g>a g2 B>g | g>a g2 B>d \
| "D7"c>B A>d f>a |1 "G"g>f gd BG :|2 "G"g2 g4 |][K:=f]
K: C
|: "C"e>d c2 a>g | g>e e4 \
| e>d c2 a>g | "F"g>f f4 \
| "Dm"d>e f>g a>g |
| "G7"g>b b4 \
|1 "F"b>a a>^g a2 | "G7"a>g g>^f g2 \
:|2 "G7"b>a g>B e>d | "C"c2 c4 |]

